X:86
T:Ivy Leaf (r)
B:NFID.103b
086ivy_L
S:SD
Z:Robinson/Black
N:I have replaced single-note triplets as follows: |(3aaa-|
with |(3aga| on mm 5,7, and 9: |(3ggg-| with |(3gfg| in
mm 6 and 10.
L:1/8
M:C
R:reel
Q:360
K:Am % dor
A2eA BAe2|^fgfa gedB|A2eA BAeA|1 BAGD EAAE:|2 BAGD EAA2||
a2 (3aga aba^f|g2 (3gfg gagB|a2 (3aga aba^f|gedB A4|
a2 (3aga aba^f|g2 (3gfg gage|b2a^f gedg|eaa2 gedB:|

%%%

